img/icon/menu-icon/payment.svg

<svg width="24" height="24" viewBox="0 0 24 24" fill="none" xmlns="http://www.w3.org/2000/svg">
<path d="M9.77778 18.7798H14.2222M17.5556 12.017H19.7778C21.0056 12.017 22 11.0082 22 9.76277V5.25426C22 4.00878 21.0056 3 19.7778 3H4.22222C2.99444 3 2 4.00878 2 5.25426V9.76277C2 11.0082 2.99444 12.017 4.22222 12.017H6.44444M17.5556 7.50851H6.44444V20.8729C6.44444 21.495 6.94222 22 7.55556 22H16.4444C17.0578 22 17.5556 21.495 17.5556 20.8729V7.50851ZM13.5713 11.5502C14.4392 12.4305 14.4392 13.8578 13.5713 14.7382C12.7035 15.6185 11.2965 15.6185 10.4286 14.7382C9.5608 13.8578 9.5608 12.4305 10.4286 11.5502C11.2965 10.6698 12.7035 10.6698 13.5713 11.5502Z" stroke="#848E9F" stroke-width="1.5" stroke-linecap="round" stroke-linejoin="round"/>
</svg>

<svg width="24" height="24" fill="none" xmlns="http://www.w3.org/2000/svg"><path d="M9.778 18.78h4.444m3.334-6.763h2.222c1.228 0 2.222-1.009 2.222-2.254V5.254C22 4.01 21.006 3 19.778 3H4.222C2.994 3 2 4.009 2 5.254v4.509c0 1.245.994 2.254 2.222 2.254h2.222m11.112-4.508H6.444v13.364A1.12 1.12 0 0 0 7.556 22h8.888a1.12 1.12 0 0 0 1.112-1.127V7.509zM13.57 11.55c.868.88.868 2.308 0 3.188a2.2 2.2 0 0 1-3.142 0 2.277 2.277 0 0 1 0-3.188 2.2 2.2 0 0 1 3.142 0z" stroke="#848E9F" stroke-width="1.5" stroke-linecap="round" stroke-linejoin="round"/></svg>
